X:1
T: Alastair's Hornpipe
C: Muriel A Johnstone
P: for Alastair Aitkenhead
R:Reel
I:speed 232
Q:232
K:G
M:4/4
L:1/8
|:gf|g2G2 d2cB|AB cA GF ED|G2 dc BG gd|eg fa g2 gf|
g2G2 d2cB|AB cA GF ED|G2 dc BG gd|eg fa g2 dc|
Bdg2 gb ag|ae a^g ac' ba|b2ga bd' c'b|ag fe d2 d2|
ef ge dG AB|cd ec B2 G2|AB cA GF ED|G2 B2 G2:|
